sources/design/Outline/ത_small.svg

<svg:svg xmlns:cc="http://creativecommons.org/ns#" xmlns:dc="http://purl.org/dc/elements/1.1/" xmlns:inkscape="http://www.inkscape.org/namespaces/inkscape" xmlns:rdf="http://www.w3.org/1999/02/22-rdf-syntax-ns#" xmlns:sodipodi="http://sodipodi.sourceforge.net/DTD/sodipodi-0.dtd" xmlns:svg="http://www.w3.org/2000/svg" xml:space="preserve" width="1000" height="1000" version="1.1" style="clip-rule:evenodd;fill-rule:evenodd;image-rendering:optimizeQuality;shape-rendering:geometricPrecision;text-rendering:geometricPrecision" viewBox="0 0 1000 1000" id="svg10" sodipodi:docname="ത_small.svg" inkscape:version="1.0.1 (3bc2e813f5, 2020-09-07)"><svg:metadata id="metadata14"><rdf:RDF><cc:Work rdf:about=""><dc:format>image/svg+xml</dc:format><dc:type rdf:resource="http://purl.org/dc/dcmitype/StillImage" /><dc:title /></cc:Work></rdf:RDF></svg:metadata><sodipodi:namedview pagecolor="#ffffff" bordercolor="#666666" borderopacity="1" objecttolerance="10" gridtolerance="10" guidetolerance="10" inkscape:pageopacity="0" inkscape:pageshadow="2" inkscape:window-width="1920" inkscape:window-height="1015" id="namedview12" showgrid="false" inkscape:zoom="1.2005384" inkscape:cx="230.84549" inkscape:cy="946.9555" inkscape:window-x="1920" inkscape:window-y="0" inkscape:window-maximized="1" inkscape:current-layer="svg10" showguides="true" inkscape:guide-bbox="true" inkscape:document-rotation="0" inkscape:pagecheckerboard="0"><sodipodi:guide position="0,1000" orientation="0,1" id="guide16" inkscape:label="" inkscape:locked="true" inkscape:color="rgb(0,0,255)" /><sodipodi:guide position="1763.3122,2036.1693" orientation="1000,0" id="guide18" /><sodipodi:guide position="0,200" orientation="0,1" id="guide20" inkscape:label="base" inkscape:locked="true" inkscape:color="rgb(0,0,255)" /><inkscape:grid type="xygrid" id="grid24" originx="-473.37552" originy="-489.69235" /><sodipodi:guide position="0,0" orientation="0,1" id="guide34" inkscape:label="bottom" inkscape:locked="true" inkscape:color="rgb(0,0,255)" /><sodipodi:guide position="225.05109,1693.3186" orientation="0,1" id="guide44" inkscape:label="" inkscape:locked="false" inkscape:color="rgb(0,0,255)" /><sodipodi:guide position="0,900" orientation="0,1" id="guide46" inkscape:label="" inkscape:locked="true" inkscape:color="rgb(0,0,255)" /><sodipodi:guide position="442.25295,240.9655" orientation="1,0" id="guide841" inkscape:label="width" />    </sodipodi:namedview>
 <svg:defs id="defs4"><inkscape:path-effect effect="spiro" id="path-effect851" is_visible="true" lpeversion="1" />
  <svg:style type="text/css" id="style2">
   
    .fil0 {fill:#EF7F1A;fill-rule:nonzero}
   
  </svg:style>
 <inkscape:path-effect effect="spiro" id="path-effect1214" is_visible="true" lpeversion="1" /><inkscape:path-effect effect="spiro" id="path-effect1195" is_visible="true" lpeversion="1" /><inkscape:path-effect effect="spiro" id="path-effect992" is_visible="true" lpeversion="1" /><inkscape:path-effect effect="spiro" id="path-effect1060" is_visible="true" lpeversion="1" /><inkscape:path-effect effect="spiro" id="path-effect1047" is_visible="true" lpeversion="1" /><inkscape:path-effect effect="spiro" id="path-effect1085" is_visible="true" lpeversion="1" /><inkscape:path-effect effect="spiro" id="path-effect1286" is_visible="true" lpeversion="1" /><inkscape:path-effect effect="spiro" id="path-effect1305" is_visible="true" lpeversion="1" /></svg:defs>
 
<svg:g id="path1210-6"><svg:path style="color:#000000;clip-rule:nonzero;fill:#1a5fb4;fill-rule:nonzero;stroke-linecap:round;stroke-linejoin:round;-inkscape-stroke:none;paint-order:fill stroke markers;shape-rendering:auto" d="M 347.48828,768.4375 C 340.16128999999995,768.5056 332.88234,769.15241 325.75194999999997,770.31641 C 297.98879,774.84858 273.84979,786.6367300000001 252.80858999999998,799.50977 C 247.10125,803.00152 241.51341999999997,806.67835 236.02148,810.49023 C 216.43121,796.74896 194.65845,785.98954 171.22852,779.37695 C 145.22411,772.03778 116.85887,769.5984599999999 88.683594,775.50195 C 65.204607,780.42144 41.927863,791.23199 23.587891,809.76562 C 6.792410199999999,826.73846 -3.9943060999999993,848.42984 -7.933593699999999,871.56055 C -11.562014999999999,892.8659200000001 -9.177054,912.51946 -6.363281199999999,929.64648 C 3.8990933000000005,992.11207 24.358292000000002,1047.0951 21.724609,1097.7285 C 20.767033,1116.1381999999999 16.912727,1134.4678999999999 10.376953,1151.7051 A 30.003,30.003 0.0 0,0 39.591797,1192.3183999999999 L 142.25195,1188.3358999999998 A 30.003,30.003 0.0 0,0 166.21679999999998,1141.9706999999999 C 166.21479999999997,1141.9706999999999 166.2128,1141.9606999999999 166.21079999999998,1141.9606999999999 C 182.70161,1151.4010999999998 201.5734,1156.8689 221.42368999999997,1156.6716 C 243.79302999999996,1156.4493 264.59237999999993,1149.0686999999998 282.14829999999995,1137.1345 C 280.52610999999996,1142.8988 278.76368999999994,1148.6230999999998 277.18735999999996,1154.4000999999998 A 30.003,30.003 0.0 0,0 306.35337999999996,1192.2966 L 402.41977999999995,1191.5798 A 30.003,30.003 0.0 0,0 429.9393099999999,1150.1658 C 422.94654999999995,1133.172 419.1815399999999,1114.7164 418.9588399999999,1096.3416 C 418.6706799999999,1072.5647 424.2986499999999,1047.7302 433.5174399999999,1023.4021 C 442.8158899999999,998.86379 457.3330299999999,972.17576 465.6971299999999,939.55444 C 472.7096799999999,912.20437 474.5505399999999,881.58275 464.7889199999999,851.76538 C 455.8512199999999,824.46468 437.6661999999999,800.2567300000001 412.0135299999999,785.1169400000001 C 391.88270999999986,773.2360500000001 369.4691299999999,768.2311300000001 347.4881399999999,768.4353000000001 L 347.48828,768.4375 M 347.83984,828.49414 C 360.20707999999996,828.43184 372.16717,831.27255 381.51757999999995,836.79102 C 393.32519999999994,843.75969 403.17175999999995,856.39738 407.76757999999995,870.43555 C 411.77050999999994,882.6627000000001 412.32224999999994,897.01223 410.12305,911.74805 C 404.18581,889.2049400000001 389.30967999999996,871.99036 371.7168,860.83398 C 354.85130999999996,850.13888 335.60895,844.91248 316.38867,844.66602 C 307.13335,844.54734 298.22276999999997,845.66294 289.62305,847.55859 C 305.10702,838.62957 320.56158,831.95874 335.41992,829.5332 C 339.55138,828.8587699999999 343.71743,828.51492 347.83984,828.49414 M 127.42772999999997,832.41797 C 136.52540999999997,832.93881 145.79988999999998,834.54386 154.93163999999996,837.12109 C 166.27278999999996,840.32188 177.29231999999996,845.00368 187.75194999999997,850.87695 C 185.04884999999996,853.58719 182.48997999999997,856.4347 179.87694999999997,859.2324199999999 C 167.57409999999996,856.7696199999999 154.52630999999997,856.44363 141.35546999999997,859.2519199999999 C 123.02125999999997,863.1611999999999 107.22037999999998,872.4914499999999 94.71679699999997,884.5234099999999 C 82.30968499999997,896.4625299999999 73.50563899999997,910.6538499999999 67.43359399999997,925.2343399999999 C 63.81900499999997,933.9138699999999 61.18008299999997,942.6975499999999 59.29492199999997,951.4960599999998 C 56.83626099999997,940.7942699999999 54.53797199999997,930.2323799999998 52.84374999999997,919.9198899999998 C 50.422222999999974,905.1803999999997 49.41958099999997,892.1627399999998 51.21289099999997,881.6327799999998 C 53.107057999999974,870.5106099999998 58.59200199999997,859.6937699999997 66.23632799999997,851.9687199999998 C 74.67172399999997,843.4442499999999 87.20978099999996,837.1134999999998 100.98827999999997,834.2265299999998 C 109.41041999999997,832.4618599999998 118.33005999999997,831.8970999999998 127.42772999999997,832.4179399999998 L 127.42772999999997,832.41797 M 315.61913999999996,904.66211 C 324.27119999999996,904.77305 332.91101,907.27106 339.58593999999994,911.50391 C 346.31035999999995,915.76814 351.0645099999999,922.3309 352.28905999999995,927.4453100000001 C 353.08212,930.7575700000001 353.10747999999995,935.7467800000001 351.86913999999996,941.5703100000001 C 350.60792999999995,947.50142 348.06641999999994,954.4650800000001 344.75586,962.48437 C 342.46736,968.02788 339.88511,973.77787 337.37109,979.4765600000001 C 336.93496,976.71239 336.60731999999996,973.8939600000001 336.09375,971.1738300000001 C 331.77915,948.3214200000001 324.54008,925.9087400000001 314.5,904.7089800000001 C 314.86966,904.7049800000001 315.25213,904.6573800000001 315.61914,904.6620800000001 L 315.61913999999996,904.66211 M 225.93554999999998,974.28711 C 226.25097999999997,975.02714 226.65971,975.71606 226.96093999999997,976.46289 C 233.44172999999998,992.53077 235.80494999999996,1008.9946 232.84569999999997,1022.2695 C 231.29748999999995,1029.2147 228.23491999999996,1034.7057 225.28905999999998,1037.5039 C 223.83900999999997,1038.8813 222.26602999999997,1039.7941999999998 221.12108999999998,1040.2031 C 220.0381,1040.59 218.95608,1040.618 218.58594,1040.5605 C 218.21993,1040.5035 217.2199,1040.1636 216.30469,1039.4824 C 215.33956,1038.7641 214.11839999999998,1037.4593 213.125,1035.7441000000001 C 211.10695,1032.2599 209.68897,1026.2427 210.02344,1019.1855000000002 C 210.57220999999998,1007.6066000000002 215.32531,994.1566100000001 222.66797,979.9531200000001 C 223.67785,977.9996200000002 224.87291,976.1997200000001 225.93555,974.2871100000001 L 225.93554999999998,974.28711 M 359.10352,1089.0938 C 359.03492,1091.7484000000002 358.93242,1094.3954 358.96484,1097.0703 C 359.10661999999996,1108.7687 360.39544,1120.4024000000002 362.50977,1131.8789000000002 L 346.04883,1132.0020000000002 C 347.87655,1125.7504000000001 349.56216,1119.4577000000002 351.44531,1113.2227000000003 C 353.91227,1105.0546000000002 356.52779,1097.1019000000003 359.10352,1089.0938000000003 L 359.10352,1089.0938 M 80.98632800000001,1108.0527000000002 C 84.06187300000002,1115.5818000000002 87.38877600000001,1122.9882000000002 90.91601600000001,1130.2813 L 78.00585900000002,1130.7832 C 79.36469100000002,1123.2588 80.35616100000001,1115.6798000000001 80.98632800000001,1108.0527000000002" id="path3254" /></svg:g></svg:svg>

<svg:svg xmlns:cc="http://creativecommons.org/ns#" xmlns:dc="http://purl.org/dc/elements/1.1/" xmlns:inkscape="http://www.inkscape.org/namespaces/inkscape" xmlns:rdf="http://www.w3.org/1999/02/22-rdf-syntax-ns#" xmlns:sodipodi="http://sodipodi.sourceforge.net/DTD/sodipodi-0.dtd" xmlns:svg="http://www.w3.org/2000/svg" xml:space="preserve" width="1000" height="1000" version="1.1" style="clip-rule:evenodd;fill-rule:evenodd;image-rendering:optimizeQuality;shape-rendering:geometricPrecision;text-rendering:geometricPrecision" viewBox="0 0 1000 1000" id="svg10" sodipodi:docname="ത_small.svg" inkscape:version="1.0.1 (3bc2e813f5, 2020-09-07)"><svg:metadata id="metadata14"><rdf:RDF><cc:Work rdf:about=""><dc:format>image/svg+xml</dc:format><dc:type rdf:resource="http://purl.org/dc/dcmitype/StillImage" /><dc:title /></cc:Work></rdf:RDF></svg:metadata><sodipodi:namedview pagecolor="#ffffff" bordercolor="#666666" borderopacity="1" objecttolerance="10" gridtolerance="10" guidetolerance="10" inkscape:pageopacity="0" inkscape:pageshadow="2" inkscape:window-width="1920" inkscape:window-height="1015" id="namedview12" showgrid="false" inkscape:zoom="1.2005384" inkscape:cx="230.84549" inkscape:cy="946.9555" inkscape:window-x="1920" inkscape:window-y="0" inkscape:window-maximized="1" inkscape:current-layer="svg10" showguides="true" inkscape:guide-bbox="true" inkscape:document-rotation="0" inkscape:pagecheckerboard="0"><sodipodi:guide position="0,1000" orientation="0,1" id="guide16" inkscape:label="" inkscape:locked="true" inkscape:color="rgb(0,0,255)" /><sodipodi:guide position="1763.3122,2036.1693" orientation="1000,0" id="guide18" /><sodipodi:guide position="0,200" orientation="0,1" id="guide20" inkscape:label="base" inkscape:locked="true" inkscape:color="rgb(0,0,255)" /><inkscape:grid type="xygrid" id="grid24" originx="-473.37552" originy="-489.69235" /><sodipodi:guide position="0,0" orientation="0,1" id="guide34" inkscape:label="bottom" inkscape:locked="true" inkscape:color="rgb(0,0,255)" /><sodipodi:guide position="225.05109,1693.3186" orientation="0,1" id="guide44" inkscape:label="" inkscape:locked="false" inkscape:color="rgb(0,0,255)" /><sodipodi:guide position="0,900" orientation="0,1" id="guide46" inkscape:label="" inkscape:locked="true" inkscape:color="rgb(0,0,255)" /><sodipodi:guide position="442.25295,240.9655" orientation="1,0" id="guide841" inkscape:label="width" />    </sodipodi:namedview>
 <svg:defs id="defs4"><inkscape:path-effect effect="spiro" id="path-effect851" is_visible="true" lpeversion="1" />
  <svg:style type="text/css" id="style2">
   
    .fil0 {fill:#EF7F1A;fill-rule:nonzero}
   
  </svg:style>
 <inkscape:path-effect effect="spiro" id="path-effect1214" is_visible="true" lpeversion="1" /><inkscape:path-effect effect="spiro" id="path-effect1195" is_visible="true" lpeversion="1" /><inkscape:path-effect effect="spiro" id="path-effect992" is_visible="true" lpeversion="1" /><inkscape:path-effect effect="spiro" id="path-effect1060" is_visible="true" lpeversion="1" /><inkscape:path-effect effect="spiro" id="path-effect1047" is_visible="true" lpeversion="1" /><inkscape:path-effect effect="spiro" id="path-effect1085" is_visible="true" lpeversion="1" /><inkscape:path-effect effect="spiro" id="path-effect1286" is_visible="true" lpeversion="1" /><inkscape:path-effect effect="spiro" id="path-effect1305" is_visible="true" lpeversion="1" /></svg:defs>
 
<svg:g id="path1210-6"><svg:path style="color:#000000;clip-rule:nonzero;fill:#1a5fb4;fill-rule:nonzero;stroke-linecap:round;stroke-linejoin:round;-inkscape-stroke:none;shape-rendering:auto" d="m 347.48828,768.4375 c -7.32699,0.0681 -14.60594,0.71491 -21.73633,1.87891 -27.76316,4.53217 -51.90216,16.32032 -72.94336,29.19336 -5.70734,3.49175 -11.29517,7.16858 -16.78711,10.98046 -19.59027,-13.74127 -41.36303,-24.50069 -64.79296,-31.11328 -26.00441,-7.33917 -54.36965,-9.77849 -82.544926,-3.875 -23.478987,4.91949 -46.755731,15.73004 -65.095703,34.26367 -16.7954808,16.97284 -27.5821971,38.66422 -31.5214847,61.79493 -3.6284213,21.30537 -1.2434603,40.95891 1.5703125,58.08593 10.2623745,62.46559 30.7215732,117.44862 28.0878902,168.08202 -0.957576,18.4097 -4.811882,36.7394 -11.347656,53.9766 a 30.003,30.003 0 0 0 29.214844,40.6133 l 102.660153,-3.9825 a 30.003,30.003 0 0 0 23.96485,-46.3652 c -0.002,-0 -0.004,-0.01 -0.006,-0.01 16.49081,9.4404 35.3626,14.9082 55.21289,14.7109 22.36934,-0.2223 43.16869,-7.6029 60.72461,-19.5371 -1.62219,5.7643 -3.38461,11.4886 -4.96094,17.2656 a 30.003,30.003 0 0 0 29.16602,37.8965 l 96.0664,-0.7168 a 30.003,30.003 0 0 0 27.51953,-41.414 c -6.99276,-16.9938 -10.75777,-35.4494 -10.98047,-53.8242 -0.28816,-23.7769 5.33981,-48.6114 14.5586,-72.9395 9.29845,-24.53831 23.81559,-51.22634 32.17969,-83.84766 7.01255,-27.35007 8.85341,-57.97169 -0.90821,-87.78906 -8.9377,-27.3007 -27.12272,-51.50865 -52.77539,-66.64844 -20.13082,-11.88089 -42.5444,-16.88581 -64.52539,-16.68164 z m 0.35156,60.05664 c 12.36724,-0.0623 24.32733,2.77841 33.67774,8.29688 11.80762,6.96867 21.65418,19.60636 26.25,33.64453 4.00293,12.22715 4.55467,26.57668 2.35547,41.3125 -5.93724,-22.54311 -20.81337,-39.75769 -38.40625,-50.91407 -16.86549,-10.6951 -36.10785,-15.9215 -55.32813,-16.16796 -9.25532,-0.11868 -18.1659,0.99692 -26.76562,2.89257 15.48397,-8.92902 30.93853,-15.59985 45.79687,-18.02539 4.13146,-0.67443 8.29751,-1.01828 12.41992,-1.03906 z m -220.41211,3.92383 c 9.09768,0.52084 18.37216,2.12589 27.50391,4.70312 11.34115,3.20079 22.36068,7.88259 32.82031,13.75586 -2.7031,2.71024 -5.26197,5.55775 -7.875,8.35547 -12.30285,-2.4628 -25.35064,-2.78879 -38.52148,0.0195 -18.33421,3.90928 -34.13509,13.23953 -46.638673,25.27149 -12.407112,11.93912 -21.211158,26.13044 -27.283203,40.71093 -3.614589,8.67953 -6.253511,17.46321 -8.138672,26.26172 -2.458661,-10.70179 -4.75695,-21.26368 -6.451172,-31.57617 -2.421527,-14.73949 -3.424169,-27.75715 -1.630859,-38.28711 1.894167,-11.12217 7.379111,-21.93901 15.023437,-29.66406 8.435396,-8.52447 20.973453,-14.85522 34.751952,-17.74219 8.42214,-1.76467 17.34178,-2.32943 26.43945,-1.80859 z m 188.19141,72.24414 c 8.65206,0.11094 17.29187,2.60895 23.9668,6.8418 6.72442,4.26423 11.47857,10.82699 12.70312,15.9414 0.79306,3.31226 0.81842,8.30147 -0.41992,14.125 -1.26121,5.93111 -3.80272,12.89477 -7.11328,20.91406 -2.2885,5.54351 -4.87075,11.2935 -7.38477,16.99219 -0.43613,-2.76417 -0.76377,-5.5826 -1.27734,-8.30273 -4.3146,-22.85241 -11.55367,-45.26509 -21.59375,-66.46485 0.36966,-0.004 0.75213,-0.0516 1.11914,-0.0469 z m -89.68359,69.625 c 0.31543,0.74003 0.72416,1.42895 1.02539,2.17578 6.48079,16.06788 8.84401,32.53171 5.88476,45.80661 -1.54821,6.9452 -4.61078,12.4362 -7.55664,15.2344 -1.45005,1.3774 -3.02303,2.2903 -4.16797,2.6992 -1.08299,0.3869 -2.16501,0.4149 -2.53515,0.3574 -0.36601,-0.057 -1.36604,-0.3969 -2.28125,-1.0781 -0.96513,-0.7183 -2.18629,-2.0231 -3.17969,-3.7383 -2.01805,-3.4842 -3.43603,-9.5014 -3.10156,-16.5586 0.54877,-11.5789 5.30187,-25.02889 12.64453,-39.23238 1.00988,-1.9535 2.20494,-3.7534 3.26758,-5.66601 z m 133.16797,114.80669 c -0.0686,2.6546 -0.1711,5.3016 -0.13868,7.9765 0.14178,11.6984 1.4306,23.3321 3.54493,34.8086 l -16.46094,0.1231 c 1.82772,-6.2516 3.51333,-12.5443 5.39648,-18.7793 2.46696,-8.1681 5.08248,-16.1208 7.65821,-24.1289 z m -278.117192,18.9589 c 3.075545,7.5291 6.402448,14.9355 9.929688,22.2286 l -12.910157,0.5019 c 1.358832,-7.5244 2.350302,-15.1034 2.980469,-22.7305 z" id="path3254" /></svg:g></svg:svg>
